packages/kaspersky-hexa-ui-icons/src/iconsSVGs/16/PlantMonitoring.svg

<svg width="16" height="16" viewBox="0 0 16 16" fill="none" xmlns="http://www.w3.org/2000/svg">
<path d="M7.99985 1.6666L8.38985 1.14661C8.27429 1.05993 8.13707 1.0166 7.99984 1.0166C7.86262 1.0166 7.7254 1.05994 7.60985 1.1466L7.99985 1.6666Z" fill="black"/>
<path fill-rule="evenodd" clip-rule="evenodd" d="M12.8598 4.20109C12.9518 3.55763 12.9511 3.55754 12.9511 3.55754L12.949 3.55724L12.9457 3.55678L12.9371 3.55566L12.9127 3.55277C12.8933 3.55061 12.8676 3.54807 12.836 3.54564C12.773 3.54079 12.6863 3.53636 12.5799 3.53636C12.3676 3.53636 12.0738 3.554 11.7306 3.62264C11.2186 3.72504 10.5956 3.94155 9.9751 4.38008C9.91782 3.36857 9.56427 2.59147 9.20733 2.05605C9.0132 1.76485 8.81791 1.5446 8.6678 1.39449C8.59258 1.31927 8.52817 1.26112 8.48016 1.21996C8.45613 1.19937 8.43614 1.18297 8.42088 1.17076L8.40159 1.15557L8.39475 1.15031L8.39205 1.14826L8.39089 1.14739C8.39089 1.14739 8.38985 1.14661 7.99985 1.6666C7.60985 1.1466 7.60985 1.1466 7.60985 1.1466L7.60881 1.14738L7.60765 1.14826L7.60495 1.1503L7.59811 1.15556L7.57882 1.17075C7.56356 1.18296 7.54357 1.19936 7.51954 1.21996C7.47152 1.26112 7.40711 1.31926 7.33189 1.39448C7.18178 1.5446 6.98648 1.76484 6.79234 2.05604C6.4354 2.59146 6.08184 3.36856 6.02456 4.38008C5.40404 3.94155 4.78106 3.72504 4.26904 3.62264C3.92585 3.554 3.63202 3.53636 3.41972 3.53636C3.31334 3.53636 3.22669 3.54079 3.16363 3.54564C3.13207 3.54807 3.10634 3.55061 3.08692 3.55277L3.06253 3.55566L3.05398 3.55678L3.05063 3.55724L3.04918 3.55744C3.04918 3.55744 3.0479 3.55763 3.13983 4.20109L3.0479 3.55763C2.76191 3.59848 2.53721 3.82319 2.49636 4.10918L3.13983 4.20109C2.49636 4.10918 2.49636 4.10918 2.49636 4.10918L2.49617 4.11046L2.49597 4.1119L2.49551 4.11525L2.49439 4.12381L2.4915 4.14819C2.48934 4.16762 2.4868 4.19335 2.48437 4.2249C2.47953 4.28796 2.4751 4.37462 2.4751 4.48099C2.4751 4.69329 2.49275 4.98711 2.56139 5.3303C2.69926 6.01962 3.04394 6.91002 3.85873 7.72482C4.03517 7.90127 4.21768 8.05818 4.4027 8.19774C4.15819 8.38004 3.99985 8.6715 3.99985 8.99995V12.9999C3.99985 14.1045 4.89528 14.9999 5.99985 14.9999H9.99985C11.1044 14.9999 11.9998 14.1045 11.9998 12.9999V8.99995C11.9998 8.6715 11.8415 8.38003 11.597 8.19773C11.782 8.05817 11.9645 7.90126 12.1409 7.72482C12.9557 6.91002 13.3004 6.01962 13.4383 5.3303C13.5069 4.98711 13.5246 4.69329 13.5246 4.48099C13.5246 4.37462 13.5201 4.28796 13.5153 4.2249C13.5129 4.19335 13.5103 4.16762 13.5082 4.14819L13.5053 4.12381L13.5041 4.11525L13.5037 4.1119L13.5035 4.11046C13.5035 4.11046 13.5033 4.10918 12.8598 4.20109ZM7.87401 2.77716C7.91641 2.71356 7.9587 2.65497 7.99984 2.60142C8.04097 2.65497 8.08326 2.71355 8.12566 2.77715C8.40238 3.19224 8.68315 3.8189 8.68316 4.66661C8.68316 5.58057 8.35678 6.34277 8.04127 6.86429C8.02481 6.8915 8.01108 6.9003 8.00717 6.90254C8.00251 6.90521 7.99984 6.90515 7.99984 6.90515C7.99984 6.90515 7.99708 6.90516 7.9925 6.90254C7.98859 6.9003 7.97486 6.8915 7.9584 6.86429C7.64289 6.34277 7.3165 5.58057 7.3165 4.6666C7.3165 3.8189 7.59728 3.19225 7.87401 2.77716ZM5.29985 12.9999V9.29994H10.6998V12.9999C10.6998 13.3865 10.3864 13.6999 9.99985 13.6999H5.99985C5.61325 13.6999 5.29985 13.3865 5.29985 12.9999ZM12.1988 4.86211C12.1319 4.87088 12.0605 4.8824 11.9856 4.89739C11.4964 4.99523 10.8547 5.2398 10.2553 5.83922C9.60905 6.48549 9.30088 7.25524 9.15521 7.84711C9.14761 7.87799 9.1511 7.89392 9.15228 7.89826C9.15366 7.90335 9.1556 7.90528 9.1556 7.90528C9.1556 7.90528 9.15746 7.90723 9.16265 7.90864C9.167 7.90982 9.18293 7.9133 9.21381 7.9057C9.80568 7.76004 10.5754 7.45186 11.2217 6.80559C11.8211 6.20617 12.0657 5.56452 12.1635 5.07533C12.1785 5.00039 12.19 4.92906 12.1988 4.86211ZM4.01409 4.89739C3.93914 4.8824 3.86781 4.87088 3.80085 4.86211C3.80963 4.92906 3.82115 5.00039 3.83614 5.07533C3.93398 5.56452 4.17856 6.20617 4.77797 6.80559C5.42424 7.45186 6.19399 7.76004 6.78586 7.9057C6.81674 7.9133 6.83266 7.90982 6.83701 7.90864C6.8421 7.90726 6.84403 7.90532 6.84403 7.90532C6.84403 7.90532 6.84601 7.90335 6.84739 7.89826C6.84857 7.89392 6.85205 7.87799 6.84445 7.84711C6.69878 7.25524 6.39061 6.48549 5.74434 5.83922C5.14493 5.2398 4.50328 4.99523 4.01409 4.89739Z" fill="black"/>
<path d="M12.8598 4.20109L12.9511 3.55754C13.2371 3.59839 13.4625 3.82319 13.5033 4.10918L12.8598 4.20109Z" fill="black"/>
</svg>

<svg xmlns="http://www.w3.org/2000/svg" width="16" height="16" fill="none" viewBox="0 0 16 16"><path fill="#000" fill-rule="evenodd" d="m8 1.6667.39-.52a.65.65 0 0 0-.39-.13.65.65 0 0 0-.39.13l-.001.0007-.0012.001-.0027.002-.0069.0052-.0193.0152a2 2 0 0 0-.0592.0492 3.4 3.4 0 0 0-.1877.1745 4.36 4.36 0 0 0-.5395.6616c-.357.5354-.7105 1.3125-.7678 2.324a4.6 4.6 0 0 0-1.7555-.7574 4.36 4.36 0 0 0-.8494-.0863 3.3 3.3 0 0 0-.256.0093 2 2 0 0 0-.0768.0071l-.0243.003-.0086.001-.0034.0005-.0014.0002s-.0013.0002.0906.6437l-.0919-.6435a.65.65 0 0 0-.5515.5515l-.0002.0013-.0002.0015-.0005.0033-.001.0086-.003.0244a2 2 0 0 0-.0071.0767 3.4 3.4 0 0 0-.0093.256c0 .2123.0177.5062.0863.8494.1379.6893.4826 1.5797 1.2974 2.3945a5.2 5.2 0 0 0 .544.4729.999.999 0 0 0-.403.8022v4c0 1.1046.8955 2 2 2h4C11.1046 15 12 14.1046 12 13V9a.999.999 0 0 0-.4029-.8022 5.2 5.2 0 0 0 .544-.473c.8147-.8147 1.1594-1.7051 1.2973-2.3944a4.36 4.36 0 0 0 .0863-.8493c0-.1064-.0044-.193-.0093-.2561a2 2 0 0 0-.0071-.0767l-.0029-.0244-.0011-.0086-.0005-.0033-.0002-.0015s-.0002-.0013-.6436.0907l.6434-.092a.651.651 0 0 0-.5521-.5516l-.0021-.0003-.0034-.0005-.0085-.001-.0244-.003a2 2 0 0 0-.0767-.0071 3.4 3.4 0 0 0-.2561-.0093c-.2123 0-.5062.0177-.8494.0863a4.6 4.6 0 0 0-1.7555.7574c-.0573-1.0115-.4108-1.7886-.7677-2.324a4.36 4.36 0 0 0-.5396-.6616 3.4 3.4 0 0 0-.1876-.1745 2 2 0 0 0-.0593-.0492l-.0193-.0152-.0068-.0052-.0027-.002-.0012-.001S8.39 1.1467 8 1.6667m0 .9348a3.2 3.2 0 0 0-.1259.1757c-.2767.4151-.5575 1.0418-.5575 1.8895 0 .914.3264 1.6761.642 2.1976.0164.0273.0301.036.034.0383A.02.02 0 0 0 8 6.9052s.0026 0 .0073-.0026c.0039-.0022.0176-.011.0341-.0382.3155-.5216.6419-1.2838.6419-2.1977 0-.8477-.2808-1.4744-.5575-1.8895A3.2 3.2 0 0 0 8 2.6015M3.801 4.8622q.1007.013.2132.0353c.4892.0978 1.1309.3424 1.7303.9418.6462.6462.9544 1.416 1.1 2.0079.0077.0308.0042.0468.003.0511-.0014.0051-.0033.007-.0033.007s-.002.002-.007.0034c-.0044.0012-.0203.0047-.0512-.003-.5919-.1456-1.3616-.4538-2.0079-1.1-.5994-.5995-.844-1.2411-.9418-1.7303a3.2 3.2 0 0 1-.0353-.2132m8.1847.0353a3.2 3.2 0 0 1 .2132-.0353 3.2 3.2 0 0 1-.0353.2132c-.0978.4892-.3424 1.1308-.9418 1.7302-.6463.6463-1.416.9545-2.0079 1.1002-.0309.0076-.0468.004-.0511.0029a.02.02 0 0 1-.007-.0034s-.002-.0019-.0034-.007c-.0012-.0043-.0047-.0203.003-.0511.1456-.5919.4538-1.3617 1.1-2.008.5995-.5993 1.2411-.844 1.7303-.9417M5.3 9.3V13a.7.7 0 0 0 .7.7h4a.7.7 0 0 0 .7-.7V9.3z"/></svg>
